X: 32
T: Lady Walpole's Reel
T: Massai's Favorite
S: Traditional
N: Adapted by Robert Bley-Vroman, Contradancers of Hawaii, 26 December 1996
N: Based on the version in Miller and Perron "New England Fiddler's Repertoire"
Z: mailto:vroman@hawaii.edu  
M:C|
L:1/8
K:Bb
|:F2 | B2d2 decd | B2F2 F2FE | DFBF EDEG | FGFE D2 B,2 |
       BFdB fdgf | bagf edcB | Acfc BABd | cBAG F2 :|
|: f2 | fbfd BdBF | EDEF GFED | C2gf edcB | ABcA F2 (3fga |
        bfdf gece | dfBd cAF2 | fgfe dcBA | B2d2 B2 :|
